X: 31568
T: Painter's Polka
R: barndance
M: 4/4
K: Dmajor
|:A2 AB AGFE|F<E D2 DF A2|Acec Acec|Adfd Adfd|
A2 AB AGFE|F<E D2 DF A2|Acec Acec|d2 f2 d4:|
|:G2 g2 gf g2|A2 f2 fe d2|c2 ec Acec|d2 f2 fe d2|
G2 g2 gf g2|A2 f2 fe d2|Acec Acec|d2 f2 d4:|

